assets/1. P-Z/Taco/Color/Taco-color.svg

<svg width="100%" height="100%" viewBox="0 0 32 32" fill="none" xmlns="http://www.w3.org/2000/svg">
<path d="M13.8354 13.63C7.81543 13.63 2.93542 18.51 2.93542 24.53V27.32C2.93542 28.71 4.06543 29.84 5.45543 29.84H22.2254C23.6154 29.84 24.7454 28.71 24.7454 27.32V24.54C24.7354 18.51 19.8554 13.63 13.8354 13.63Z" fill="#E38F38"/>
<path d="M12.4754 16.73C8.24545 16.73 4.82544 20.16 4.82544 24.38V26.34C4.82544 27.32 5.61544 28.11 6.59544 28.11H18.3654C19.3454 28.11 20.1355 27.32 20.1355 26.34V24.38C20.1255 20.16 16.6954 16.73 12.4754 16.73Z" fill="#68394F"/>
<path d="M24.8254 14.42C24.7954 14.42 24.7554 14.42 24.7254 14.41C23.0054 14.32 21.4454 13.46 20.3654 12.11C19.3454 10.83 17.7654 10 16.0054 10C14.2454 10 12.6654 10.82 11.6454 12.11C10.5754 13.46 9.00544 14.32 7.28544 14.41C7.25544 14.41 7.21544 14.41 7.18544 14.42C4.43544 14.61 2.21544 16.84 2.01544 19.59C1.77544 22.88 4.36544 25.63 7.58544 25.63C10.5254 25.63 12.9354 23.34 13.1554 20.44C13.9954 20.94 14.9654 21.23 16.0054 21.23C17.0454 21.23 18.0254 20.94 18.8554 20.44C19.0754 23.34 21.4854 25.63 24.4254 25.63C27.6554 25.63 30.2354 22.88 29.9954 19.59C29.7954 16.83 27.5654 14.61 24.8254 14.42Z" fill="url(#paint0_linear_18_28079)"/>
<path d="M24.8254 14.42C24.7954 14.42 24.7554 14.42 24.7254 14.41C23.0054 14.32 21.4454 13.46 20.3654 12.11C19.3454 10.83 17.7654 10 16.0054 10C14.2454 10 12.6654 10.82 11.6454 12.11C10.5754 13.46 9.00544 14.32 7.28544 14.41C7.25544 14.41 7.21544 14.41 7.18544 14.42C4.43544 14.61 2.21544 16.84 2.01544 19.59C1.77544 22.88 4.36544 25.63 7.58544 25.63C10.5254 25.63 12.9354 23.34 13.1554 20.44C13.9954 20.94 14.9654 21.23 16.0054 21.23C17.0454 21.23 18.0254 20.94 18.8554 20.44C19.0754 23.34 21.4854 25.63 24.4254 25.63C27.6554 25.63 30.2354 22.88 29.9954 19.59C29.7954 16.83 27.5654 14.61 24.8254 14.42Z" fill="url(#paint1_radial_18_28079)"/>
<path d="M24.8254 14.42C24.7954 14.42 24.7554 14.42 24.7254 14.41C23.0054 14.32 21.4454 13.46 20.3654 12.11C19.3454 10.83 17.7654 10 16.0054 10C14.2454 10 12.6654 10.82 11.6454 12.11C10.5754 13.46 9.00544 14.32 7.28544 14.41C7.25544 14.41 7.21544 14.41 7.18544 14.42C4.43544 14.61 2.21544 16.84 2.01544 19.59C1.77544 22.88 4.36544 25.63 7.58544 25.63C10.5254 25.63 12.9354 23.34 13.1554 20.44C13.9954 20.94 14.9654 21.23 16.0054 21.23C17.0454 21.23 18.0254 20.94 18.8554 20.44C19.0754 23.34 21.4854 25.63 24.4254 25.63C27.6554 25.63 30.2354 22.88 29.9954 19.59C29.7954 16.83 27.5654 14.61 24.8254 14.42Z" fill="url(#paint2_radial_18_28079)"/>
<path d="M24.8254 14.42C24.7954 14.42 24.7554 14.42 24.7254 14.41C23.0054 14.32 21.4454 13.46 20.3654 12.11C19.3454 10.83 17.7654 10 16.0054 10C14.2454 10 12.6654 10.82 11.6454 12.11C10.5754 13.46 9.00544 14.32 7.28544 14.41C7.25544 14.41 7.21544 14.41 7.18544 14.42C4.43544 14.61 2.21544 16.84 2.01544 19.59C1.77544 22.88 4.36544 25.63 7.58544 25.63C10.5254 25.63 12.9354 23.34 13.1554 20.44C13.9954 20.94 14.9654 21.23 16.0054 21.23C17.0454 21.23 18.0254 20.94 18.8554 20.44C19.0754 23.34 21.4854 25.63 24.4254 25.63C27.6554 25.63 30.2354 22.88 29.9954 19.59C29.7954 16.83 27.5654 14.61 24.8254 14.42Z" fill="url(#paint3_radial_18_28079)"/>
<path d="M9.06548 24C11.2525 24 13.0255 22.227 13.0255 20.04C13.0255 17.853 11.2525 16.08 9.06548 16.08C6.87843 16.08 5.10547 17.853 5.10547 20.04C5.10547 22.227 6.87843 24 9.06548 24Z" fill="url(#paint4_radial_18_28079)"/>
<path d="M22.5154 19.76C24.7025 19.76 26.4754 17.987 26.4754 15.8C26.4754 13.6129 24.7025 11.84 22.5154 11.84C20.3284 11.84 18.5554 13.6129 18.5554 15.8C18.5554 17.987 20.3284 19.76 22.5154 19.76Z" fill="url(#paint5_radial_18_28079)"/>
<path d="M18.0854 13.63C12.0654 13.63 7.18542 18.51 7.18542 24.53V27.32C7.18542 28.71 8.31543 29.84 9.70543 29.84H26.4754C27.8654 29.84 28.9954 28.71 28.9954 27.32V24.54C28.9854 18.51 24.1054 13.63 18.0854 13.63Z" fill="url(#paint6_radial_18_28079)"/>
<path d="M18.0854 13.63C12.0654 13.63 7.18542 18.51 7.18542 24.53V27.32C7.18542 28.71 8.31543 29.84 9.70543 29.84H26.4754C27.8654 29.84 28.9954 28.71 28.9954 27.32V24.54C28.9854 18.51 24.1054 13.63 18.0854 13.63Z" fill="url(#paint7_linear_18_28079)"/>
<defs>
<linearGradient id="paint0_linear_18_28079" x1="2" y1="17.815" x2="30.0109" y2="17.815" gradientUnits="userSpaceOnUse">
<stop stop-color="#499976"/>
<stop offset="0.323534" stop-color="#5E9C59"/>
<stop offset="0.517655" stop-color="#6EB25B"/>
<stop offset="1" stop-color="#86B942"/>
</linearGradient>
<radialGradient id="paint1_radial_18_28079" cx="0" cy="0" r="1" gradientUnits="userSpaceOnUse" gradientTransform="translate(20.0625 12.6875) rotate(97.4314) scale(2.89935 6.52624)">
<stop stop-color="#91C575"/>
<stop offset="1" stop-color="#92DE69" stop-opacity="0"/>
</radialGradient>
<radialGradient id="paint2_radial_18_28079" cx="0" cy="0" r="1" gradientUnits="userSpaceOnUse" gradientTransform="translate(28.4375 17.3125) rotate(67.567) scale(7.37023 3.27383)">
<stop stop-color="#ADE76F"/>
<stop offset="1" stop-color="#AFEA71" stop-opacity="0"/>
</radialGradient>
<radialGradient id="paint3_radial_18_28079" cx="0" cy="0" r="1" gradientUnits="userSpaceOnUse" gradientTransform="translate(5.6875 25.63) rotate(25.3581) scale(6.84724 8.99348)">
<stop stop-color="#446568"/>
<stop offset="1" stop-color="#446667" stop-opacity="0"/>
</radialGradient>
<radialGradient id="paint4_radial_18_28079" cx="0" cy="0" r="1" gradientUnits="userSpaceOnUse" gradientTransform="translate(10.4375 18.3125) rotate(125.189) scale(5.96507 5.96508)">
<stop stop-color="#D33B44"/>
<stop offset="0.534043" stop-color="#F03B72"/>
<stop offset="0.875793" stop-color="#E73F89"/>
</radialGradient>
<radialGradient id="paint5_radial_18_28079" cx="0" cy="0" r="1" gradientUnits="userSpaceOnUse" gradientTransform="translate(25.125 13.9375) rotate(142.431) scale(6.15046 6.15046)">
<stop stop-color="#FF6A7F"/>
<stop offset="0.648699" stop-color="#F43668"/>
</radialGradient>
<radialGradient id="paint6_radial_18_28079" cx="0" cy="0" r="1" gradientUnits="userSpaceOnUse" gradientTransform="translate(10.875 27.375) rotate(-28.5888) scale(20.6365 19.6603)">
<stop offset="0.169156" stop-color="#EFB44C"/>
<stop offset="0.684045" stop-color="#F6D34B"/>
<stop offset="0.895848" stop-color="#FFE657"/>
</radialGradient>
<linearGradient id="paint7_linear_18_28079" x1="18.0904" y1="13.63" x2="18.0904" y2="29.84" gradientUnits="userSpaceOnUse">
<stop offset="0.88649" stop-color="#ECB24E" stop-opacity="0"/>
<stop offset="1" stop-color="#E49E53"/>
</linearGradient>
</defs>
</svg>

<svg width="100%" height="100%" viewBox="0 0 32 32" xmlns="http://www.w3.org/2000/svg"><path fill="#E38F38" d="M13.835 13.63c-6.02 0-10.9 4.88-10.9 10.9v2.79c0 1.39 1.13 2.52 2.52 2.52h16.77c1.39 0 2.52-1.13 2.52-2.52v-2.78c-.01-6.03-4.89-10.91-10.91-10.91"/><path fill="#68394F" d="M12.475 16.73a7.65 7.65 0 0 0-7.65 7.65v1.96c0 .98.79 1.77 1.77 1.77h11.77c.98 0 1.77-.79 1.77-1.77v-1.96c-.01-4.22-3.44-7.65-7.66-7.65"/><path fill="url(#a)" d="M24.825 14.42c-.03 0-.07 0-.1-.01-1.72-.09-3.28-.95-4.36-2.3a5.58 5.58 0 0 0-4.36-2.11c-1.76 0-3.34.82-4.36 2.11-1.07 1.35-2.64 2.21-4.36 2.3-.03 0-.07 0-.1.01-2.75.19-4.97 2.42-5.17 5.17-.24 3.29 2.35 6.04 5.57 6.04 2.94 0 5.35-2.29 5.57-5.19.84.5 1.81.79 2.85.79s2.02-.29 2.85-.79c.22 2.9 2.63 5.19 5.57 5.19 3.23 0 5.81-2.75 5.57-6.04-.2-2.76-2.43-4.98-5.17-5.17"/><path fill="url(#b)" d="M24.825 14.42c-.03 0-.07 0-.1-.01-1.72-.09-3.28-.95-4.36-2.3a5.58 5.58 0 0 0-4.36-2.11c-1.76 0-3.34.82-4.36 2.11-1.07 1.35-2.64 2.21-4.36 2.3-.03 0-.07 0-.1.01-2.75.19-4.97 2.42-5.17 5.17-.24 3.29 2.35 6.04 5.57 6.04 2.94 0 5.35-2.29 5.57-5.19.84.5 1.81.79 2.85.79s2.02-.29 2.85-.79c.22 2.9 2.63 5.19 5.57 5.19 3.23 0 5.81-2.75 5.57-6.04-.2-2.76-2.43-4.98-5.17-5.17"/><path fill="url(#c)" d="M24.825 14.42c-.03 0-.07 0-.1-.01-1.72-.09-3.28-.95-4.36-2.3a5.58 5.58 0 0 0-4.36-2.11c-1.76 0-3.34.82-4.36 2.11-1.07 1.35-2.64 2.21-4.36 2.3-.03 0-.07 0-.1.01-2.75.19-4.97 2.42-5.17 5.17-.24 3.29 2.35 6.04 5.57 6.04 2.94 0 5.35-2.29 5.57-5.19.84.5 1.81.79 2.85.79s2.02-.29 2.85-.79c.22 2.9 2.63 5.19 5.57 5.19 3.23 0 5.81-2.75 5.57-6.04-.2-2.76-2.43-4.98-5.17-5.17"/><path fill="url(#d)" d="M24.825 14.42c-.03 0-.07 0-.1-.01-1.72-.09-3.28-.95-4.36-2.3a5.58 5.58 0 0 0-4.36-2.11c-1.76 0-3.34.82-4.36 2.11-1.07 1.35-2.64 2.21-4.36 2.3-.03 0-.07 0-.1.01-2.75.19-4.97 2.42-5.17 5.17-.24 3.29 2.35 6.04 5.57 6.04 2.94 0 5.35-2.29 5.57-5.19.84.5 1.81.79 2.85.79s2.02-.29 2.85-.79c.22 2.9 2.63 5.19 5.57 5.19 3.23 0 5.81-2.75 5.57-6.04-.2-2.76-2.43-4.98-5.17-5.17"/><path fill="url(#e)" d="M9.065 24a3.96 3.96 0 1 0 0-7.92 3.96 3.96 0 0 0 0 7.92"/><path fill="url(#f)" d="M22.515 19.76a3.96 3.96 0 1 0 0-7.92 3.96 3.96 0 0 0 0 7.92"/><path fill="url(#g)" d="M18.085 13.63c-6.02 0-10.9 4.88-10.9 10.9v2.79c0 1.39 1.13 2.52 2.52 2.52h16.77c1.39 0 2.52-1.13 2.52-2.52v-2.78c-.01-6.03-4.89-10.91-10.91-10.91"/><path fill="url(#h)" d="M18.085 13.63c-6.02 0-10.9 4.88-10.9 10.9v2.79c0 1.39 1.13 2.52 2.52 2.52h16.77c1.39 0 2.52-1.13 2.52-2.52v-2.78c-.01-6.03-4.89-10.91-10.91-10.91"/><defs><radialGradient id="b" cx="0" cy="0" r="1" gradientTransform="matrix(-.375 2.875 -6.47142 -.8441 20.063 12.688)" gradientUnits="userSpaceOnUse"><stop stop-color="#91C575"/><stop offset="1" stop-color="#92DE69" stop-opacity="0"/></radialGradient><radialGradient id="c" cx="0" cy="0" r="1" gradientTransform="matrix(2.8125 6.8125 -3.02609 1.2493 28.438 17.313)" gradientUnits="userSpaceOnUse"><stop stop-color="#ADE76F"/><stop offset="1" stop-color="#AFEA71" stop-opacity="0"/></radialGradient><radialGradient id="d" cx="0" cy="0" r="1" gradientTransform="matrix(6.1875 2.9325 -3.85168 8.12695 5.688 25.63)" gradientUnits="userSpaceOnUse"><stop stop-color="#446568"/><stop offset="1" stop-color="#446667" stop-opacity="0"/></radialGradient><radialGradient id="e" cx="0" cy="0" r="1" gradientTransform="rotate(125.189 .471 11.862)scale(5.96507 5.96508)" gradientUnits="userSpaceOnUse"><stop stop-color="#D33B44"/><stop offset=".534" stop-color="#F03B72"/><stop offset=".876" stop-color="#E73F89"/></radialGradient><radialGradient id="f" cx="0" cy="0" r="1" gradientTransform="rotate(142.431 10.192 11.242)scale(6.15046)" gradientUnits="userSpaceOnUse"><stop stop-color="#FF6A7F"/><stop offset=".649" stop-color="#F43668"/></radialGradient><radialGradient id="g" cx="0" cy="0" r="1" gradientTransform="rotate(-28.589 59.158 -7.653)scale(20.6365 19.6603)" gradientUnits="userSpaceOnUse"><stop offset=".169" stop-color="#EFB44C"/><stop offset=".684" stop-color="#F6D34B"/><stop offset=".896" stop-color="#FFE657"/></radialGradient><linearGradient id="a" x1="2" x2="30.011" y1="17.815" y2="17.815" gradientUnits="userSpaceOnUse"><stop stop-color="#499976"/><stop offset=".324" stop-color="#5E9C59"/><stop offset=".518" stop-color="#6EB25B"/><stop offset="1" stop-color="#86B942"/></linearGradient><linearGradient id="h" x1="18.09" x2="18.09" y1="13.63" y2="29.84" gradientUnits="userSpaceOnUse"><stop offset=".886" stop-color="#ECB24E" stop-opacity="0"/><stop offset="1" stop-color="#E49E53"/></linearGradient></defs></svg>
